static/img/bell.svg

<svg height="512pt" fill="#8f8f8f" viewBox="-43 0 512 512" width="512pt" xmlns="http://www.w3.org/2000/svg"><path d="m413.417969 360.8125c-32.253907-27.265625-50.75-67.117188-50.75-109.335938v-59.476562c0-75.070312-55.765625-137.214844-128-147.625v-23.042969c0-11.796875-9.558594-21.332031-21.335938-21.332031-11.773437 0-21.332031 9.535156-21.332031 21.332031v23.042969c-72.257812 10.410156-128 72.554688-128 147.625v59.476562c0 42.21875-18.496094 82.070313-50.945312 109.503907-8.296876 7.105469-13.054688 17.429687-13.054688 28.351562 0 20.589844 16.746094 37.335938 37.332031 37.335938h352c20.589844 0 37.335938-16.746094 37.335938-37.335938 0-10.921875-4.757813-21.246093-13.25-28.519531zm0 0"/><path d="m213.332031 512c38.636719 0 70.957031-27.542969 78.378907-64h-156.757813c7.425781 36.457031 39.746094 64 78.378906 64zm0 0"/></svg>

<svg height="512pt" fill="#8f8f8f" viewBox="-43 0 512 512" width="512pt" xmlns="http://www.w3.org/2000/svg"><path d="M413.418 360.813c-32.254-27.266-50.75-67.118-50.75-109.336V192c0-75.07-55.766-137.215-128-147.625V21.332C234.668 9.535 225.109 0 213.332 0 201.559 0 192 9.535 192 21.332v23.043C119.742 54.785 64 116.93 64 192v59.477c0 42.218-18.496 82.07-50.945 109.503A37.272 37.272 0 0 0 0 389.332c0 20.59 16.746 37.336 37.332 37.336h352c20.59 0 37.336-16.746 37.336-37.336 0-10.922-4.758-21.246-13.25-28.52zM213.332 512c38.637 0 70.957-27.543 78.379-64H134.953c7.426 36.457 39.746 64 78.379 64zm0 0"/></svg>
